svgs/sharp-regular/square-nfi.svg

<svg xmlns="http://www.w3.org/2000/svg" viewBox="0 0 448 512"><!--! Font Awesome Pro 6.4.0 by @fontawesome - https://fontawesome.com License - https://fontawesome.com/license (Commercial License) Copyright 2023 Fonticons, Inc. --><path d="M48 80H400v48h48V80 32H400 48 0V80v48H48V80zm0 304H0v48 48H48 400h48V432 384H400v48H48V384zM32 160v24V328v24H80V328 262.9l48.4 77.8 7 11.3h13.3H152h24V328 184 160H128v24 65.1L79.6 171.3l-7-11.3H59.2 56 32zm184 0v24 80 64 24h48V328 288h40 24V240H304 264V208h40 24V160H304 240 216zm200 24V160H368v24V328v24h48V328 184z"/></svg>

<svg xmlns="http://www.w3.org/2000/svg" viewBox="0 0 448 512"><!--! Font Awesome Pro 6.6.0 by @fontawesome - https://fontawesome.com License - https://fontawesome.com/license (Commercial License) Copyright 2024 Fonticons, Inc. --><path d="M48 80l352 0 0 48 48 0 0-48 0-48-48 0L48 32 0 32 0 80l0 48 48 0 0-48zm0 304L0 384l0 48 0 48 48 0 352 0 48 0 0-48 0-48-48 0 0 48L48 432l0-48zM32 160l0 24 0 144 0 24 48 0 0-24 0-65.1 48.4 77.8 7 11.3 13.3 0 3.2 0 24 0 0-24 0-144 0-24-48 0 0 24 0 65.1L79.6 171.3l-7-11.3-13.3 0L56 160l-24 0zm184 0l0 24 0 80 0 64 0 24 48 0 0-24 0-40 40 0 24 0 0-48-24 0-40 0 0-32 40 0 24 0 0-48-24 0-64 0-24 0zm200 24l0-24-48 0 0 24 0 144 0 24 48 0 0-24 0-144z"/></svg>
